dist/svg/scan-o.svg

<!-- Generated by Trend Micro Style Portal -->
<svg version="1.1" xmlns="http://www.w3.org/2000/svg" width="16" height="16" viewBox="0 0 16 16">
  <title>scan-o</title>
  <path fill="rgb(34,34,34)" d="M8 0c-4.418 0-8 3.582-8 8s3.582 8 8 8c4.418 0 8-3.582 8-8v0c0-4.418-3.582-8-8-8v0zM14.982 7.5h-2.007c-0.072-0.711-0.284-1.36-0.608-1.937l0.013 0.025c0.076-0.173 0.12-0.375 0.12-0.587 0-0.829-0.672-1.501-1.501-1.501-0.212 0-0.414 0.044-0.597 0.123l0.010-0.004c-0.552-0.311-1.201-0.523-1.891-0.593l-0.021-0.002v-2.007c3.47 0.261 6.221 3.012 6.481 6.458l0.001 0.023zM7.5 8.5v3.469c-1.812-0.238-3.231-1.657-3.467-3.448l-0.002-0.020zM4.031 7.5c0.238-1.812 1.657-3.231 3.448-3.467l0.020-0.002v3.469zM8.5 8.5h3.469c-0.238 1.812-1.657 3.231-3.448 3.467l-0.020 0.002zM8.5 7.5v-3.469c0.426 0.054 0.812 0.168 1.17 0.333l-0.025-0.010c-0.092 0.189-0.146 0.411-0.146 0.645 0 0.829 0.672 1.501 1.501 1.501 0.234 0 0.456-0.054 0.654-0.15l-0.009 0.004c0.155 0.333 0.269 0.72 0.321 1.126l0.002 0.020zM7.5 1.018v2.007c-2.366 0.245-4.23 2.109-4.473 4.454l-0.002 0.021h-2.007c0.261-3.47 3.012-6.221 6.458-6.481l0.023-0.001zM1.018 8.5h2.007c0.245 2.366 2.109 4.23 4.454 4.473l0.021 0.002v2.007c-3.47-0.261-6.221-3.012-6.481-6.458l-0.001-0.023zM8.5 14.982v-2.007c2.366-0.245 4.23-2.109 4.473-4.454l0.002-0.021h2.007c-0.261 3.47-3.012 6.221-6.458 6.481l-0.023 0.001z"></path>
</svg>

<svg width="16" height="16" viewBox="0 0 16 16" fill="rgb(34, 34, 34)" xmlns="http://www.w3.org/2000/svg"><title>scan-o</title><path d="M8 0C3.582 0 0 3.582 0 8C0 12.418 3.582 16 8 16C12.418 16 16 12.418 16 8C16 3.582 12.418 0 8 0ZM14.982 7.5H12.975C12.903 6.789 12.691 6.14 12.367 5.563L12.38 5.588C12.456 5.415 12.5 5.213 12.5 5.001C12.5 4.172 11.828 3.5 10.999 3.5C10.787 3.5 10.585 3.544 10.402 3.623L10.412 3.619C9.86 3.308 9.211 3.096 8.521 3.026L8.5 3.024V1.017C11.97 1.278 14.721 4.029 14.981 7.475L14.982 7.498V7.5ZM7.5 8.5V11.969C5.688 11.731 4.269 10.312 4.033 8.521L4.031 8.501L7.5 8.5ZM4.031 7.5C4.269 5.688 5.688 4.269 7.479 4.033L7.499 4.031V7.5H4.031ZM8.5 8.5H11.969C11.731 10.312 10.312 11.731 8.521 11.967L8.501 11.969L8.5 8.5ZM8.5 7.5V4.031C8.926 4.085 9.312 4.199 9.67 4.364L9.645 4.354C9.553 4.543 9.499 4.765 9.499 4.999C9.499 5.828 10.171 6.5 11 6.5C11.234 6.5 11.456 6.446 11.654 6.35L11.645 6.354C11.8 6.687 11.914 7.074 11.966 7.48L11.968 7.5H8.5ZM7.5 1.018V3.025C5.134 3.27 3.27 5.134 3.027 7.479L3.025 7.5H1.018C1.279 4.03 4.03 1.279 7.476 1.019L7.5 1.018ZM1.018 8.5H3.025C3.27 10.866 5.134 12.73 7.479 12.973L7.5 12.975V14.982C4.03 14.721 1.279 11.97 1.019 8.524L1.018 8.501V8.5ZM8.5 14.982V12.975C10.866 12.73 12.73 10.866 12.973 8.521L12.975 8.5H14.982C14.721 11.97 11.97 14.721 8.524 14.981L8.501 14.982H8.5Z" fill="rgb(34, 34, 34)" fill-opacity="1.00"/></svg>
